ui/StatusQ/src/assets/img/icons/play.svg

<svg fill="none" height="24" viewBox="0 0 24 24" width="24" xmlns="http://www.w3.org/2000/svg"><path clip-rule="evenodd" d="m7 6.84444c0-1.38916 1.54081-2.22452 2.70493-1.46649l8.56087 5.57455c.7572.493.7572 1.6019 0 2.095l-8.56087 5.5745c-1.16412.758-2.70493-.0774-2.70493-1.4665zm1.88642-.2095c-.1663-.10829-.38642.01105-.38642.2095v10.31106c0 .1984.22012.3178.38642.2095l7.91738-5.1555c.1515-.0987.1515-.3204 0-.419z" fill="#000" fill-rule="evenodd"/></svg>

<svg width="24" height="24" viewBox="0 0 24 24" fill="none" xmlns="http://www.w3.org/2000/svg">
<path fill-rule="evenodd" clip-rule="evenodd" d="M7 6.84444C7 5.45528 8.54081 4.61992 9.70493 5.37795L18.2658 10.9525C19.023 11.4455 19.023 12.5544 18.2658 13.0475L9.70493 18.622C8.54081 19.38 7 18.5446 7 17.1555V6.84444ZM8.88642 6.63494C8.72012 6.52665 8.5 6.64599 8.5 6.84444V17.1555C8.5 17.3539 8.72012 17.4733 8.88642 17.365L16.8038 12.2095C16.9553 12.1108 16.9553 11.8891 16.8038 11.7905L8.88642 6.63494Z" fill="black"/>
</svg>
